X:196
T:Molly Rankin's
R:Reel
O:Cape Breton
C:John Morris Rankin
B:Jerry Holland's collection of fiddle tunes
S:Jerry Holland's collection of fiddle tunes
Z:Transcription, chords:Mike Long
M:C|
L:1/8
K:D
dB|\
"D"Ad d/d/d d2df|"A"edef "G"edB2|"D"Ad d/d/d d2ef|"D"afdf "A"e2dB|\
"D"Ad d/d/d d2df|
"A"edef "G"edB2|"D"ab~af edef|"D"defd "A"e2|]\
ef|\
"D"aA A/A/A {b}afef|"D"ab~af "A"edef|
"D"aA A/A/A {b}afef|"G"defd "A"e2ef|\
"D"aA A/A/A {b}afef|"D"ab~af "A"edef|"G"~gefb edBe|"D"defd "A"e2|]
